X:1
T:Title
%%score 1 2
L:1/8
Q:1/4=100
M:6/8
K:D
V:1 treble nm="Grand Piano, Soprano"
V:2 bass nm="Choir Pad, Bass"
V:1
 [FA] [FA]2 [FA] [GB]2 | [FA] [FA]2- [FA] [CE]2 | [DF] [FA]2 [FA] [EG]2 | %3
w: By~William~Warren~Bentley * * *|||
 [CE] [DF]2- [DF]2- [DF]/ z/ | [FA] [FA]2 [FA] [GB]2 | [FA] [FA]2- [FA] [Fd]2 | %6
w: |||
 [Fd] [Ec]2 [CA] [Ec]2 | [DB] [CA]2- [CA]2- [CA]/ z/ | z [Ge]2- [Ge][Ge][Fd] | %9
w: |||
 [Ec] [Fd]2- [Fd] [FA]2- | [FA] [Ge]2- [Ge][Ge][Fd] | [Ec] [Fd]2- [Fd] [FA]2- | %12
w: |||
 [FA] [GB]2 [GB][Gd][Gc] | [GB] [FA]2- [FA] [Fd]2 | [Fd] [Ge]2 [Ge] [Fd]2 | [Ec] [Fd]2- [Fd]3- | %16
w: ||||
 [Fd]3 z3 |] %17
w: |
V:2
 [D,D] [D,D]2 [D,D] [D,D]2 | [D,D] [D,D]2- [D,D] [D,A,]2 | [D,A,] [A,,A,]2 [A,,A,] [A,,A,]2 | %3
 [A,,A,] [D,A,]2- [D,A,]2- [D,A,]/ z/ | [D,D] [D,D]2 [D,D] [D,D]2 | [D,D] [D,D]2- [D,D] [D,A,]2 | %6
 [D,A,] [E,A,]2 [E,A,] [E,^G,]2 | [E,^G,] [A,,A,]2- [A,,A,]2- [A,,A,]/ z/ | %8
 z [A,,A,]2- [A,,A,][A,,A,][A,,A,] | [A,,A,] [D,A,]2- [D,A,] [D,D]2- | %10
 [D,D] [A,,A,]2- [A,,A,][A,,A,][A,,A,] | [A,,A,] [D,A,]2- [D,A,] [D,D]2- | %12
 [D,D] [G,D]2 [G,D][G,B,][G,C] | [G,D] [D,D]2- [D,D] [D,D]2 | [D,D] [G,B,]2 [G,B,] A,2 | %15
 [A,,A,] [D,A,]2- [D,A,]3- | [D,A,]3 z3 |] %17

